X:1
T:His Grace Is Sufficient for Me
T:His Grace Is Sufficient for Me
T:Ernest Orlando Sellers
T:Anna Belle Russell, 1922
T:Public Domain Courtesy of the Cyber Hymnal™
C:Ernest Orlando Sellers
Z:Public Domain
Z:Courtesy of the Cyber Hymnal™
%%score ( 1 2 ) ( 3 4 )
L:1/8
Q:1/4=95
M:6/8
K:Ab
V:1 treble 
V:2 treble 
V:3 bass 
V:4 bass 
V:1
 [CE] | [CE][CA][DB] [Ec]2 [EB] | [FB][FA][DF] [CE]2 [CE] | [CA][DA][EA] [=Dc]<[DB][DF] | %4
w: 1.~Wher-|ev- er my home, wher-|ev- er I roam, Wher-|ev- er my dwell- ing may|
w: 2.~Wher-|ev- er I’m called to|la- bor for Him, At|home or a- cross the wide|
w: 3.~His|mer- cy and love en-|dur- eth for aye, There’s|naught that His eye can- not|
 B3- [EB]2 [_DE] | [CE][CA][DB] [Ec]2 ([EA]/[EA]/) | [FB][FB][Fc] [Fd]2 [DF] | %7
w: be; Tho’ skies|* may be blue or *|skies may be gray, His|
w: sea; His pre-|* sence is there, I’m *|un- der His care, His|
w: see; He hold-|* eth the wealth of~the *|world in His hand, His|
 [DG][DF][DE] [Fd]<[Ec][DB] | [CA]3- [CA]2 ||"^Refrain" !fermata![Ec]/[DB]/ | %10
w: grace is suf- fi- cient for|me. *||
w: grace is suf- fi- cient for|me. *|As the|
w: grace is suf- fi- cient for|me. *||
 [CA]2 [CE] [CE][CF][CA] | ([DG]3 [DG])[DG][DA] | [DB]2 [C=A] [DB][Ec][DB] | E3- [CE][CA][DB] | %14
w: ||||
w: wa- ters co- ver the|sea, * So God’s|mer- cy cov- er- eth|me; I am un-|
w: ||||
 [Ec][Ec][Ed] [Ee]2 [Ec]/[EB]/ | [EA]>[EA][_GA] !fermata![Fd]2 [Fc]/[FB]/ | %16
w: ||
w: * der His care, Ev- ery|day, ev- ery- where, For His|
w: ||
 [EA][EA][__EA] [DA]<[DG][DB] | A3- [CA]2 |] %18
w: ||
w: grace is suf- fi- cient for|me. *|
w: ||
V:2
 x | x6 | x6 | x6 | E2 =D x3 | x6 | x6 | x6 | x5 || x | x6 | x6 | x6 | C C D x3 | x6 | x6 | x6 | %17
 CED x2 |] %18
V:3
 [A,,A,] | [A,,A,][A,,A,][A,,A,] [A,,A,]2 [C,A,] | [D,A,][D,A,][D,A,] [A,,A,]2 [A,,A,] | %3
 [A,,A,][B,,A,][C,A,] [B,,A,]<[B,,F,][A,B,] | ([G,B,]2 [F,A,] [E,G,]2) [E,G,] | %5
 [A,,A,][A,,E,][A,,A,] [A,,A,]2 ([C,A,]/[C,A,]/) | [D,A,][D,A,][C,=A,] [B,,B,]2 [B,,B,] | %7
 [E,B,][E,A,][E,G,] [E,G,]<[E,G,]E, | [A,,E,]3- [A,,E,]2 || !fermata![A,,A,]/[A,,E,]/ | %10
 [A,,E,]2 [A,,A,] [A,,A,][A,,E,][A,,E,] | ([B,,E,]2 [B,,E,] [E,B,])[E,B,][E,F,] | %12
 [E,G,]2 [E,G,] [E,G,][E,G,][E,G,] | A, ([E,A,][B,,G,] [A,,A,])[A,,A,][A,,A,] | %14
 [A,,A,][A,,A,][B,,G,] [C,A,]2 [A,,A,]/[B,,G,]/ | %15
 [C,A,]>[C,A,][C,A,] !fermata![D,A,]2 [D,A,]/[D,B,]/ | [E,C][E,C][E,_C] [E,B,]<[E,B,][E,G,] | %17
 (A,G,F, [A,,E,]2) |] %18
V:4
 x | x6 | x6 | x6 | x6 | x6 | x6 | x5 E, | x5 || x | x6 | x6 | x6 | A, x5 | x6 | x6 | x6 | %17
 A,,3- x2 |] %18

